X:282
T: OHNE LIEB UND OHNE WEIN
N: B0334
O: Europa, Mitteleuropa, Deutschland
R: Trink - Lied
M: 2/4
L: 1/32
K: A
 | A6cBA4E4 | c6edc8 |
B4B4B2d2F2B2 | A4G4A8 |
A6cBA4E4 | c6edc8 |
B4B4B2d2F2B2 | A4G4A8 |
B4G2A2B4G2A2 | B2d2c2e2d8 |
c4e4f4e2d2 | c8B8 |
A6cBA4E4 | c6edc8 |
B4B4B2d2F2B2 | A4G4A8

@@@ Tune index: 2085
